Newaita/actions/16/gnumeric-object-list.svg

<svg height="16" viewBox="0 0 16 16" width="16" xmlns="http://www.w3.org/2000/svg"><g fill="#424242"><path d="m7.609375 6.90625h-5.292969c-.183594 0-.332031-.148438-.332031-.332031v-.660157c0-.183593.148437-.332031.332031-.332031h5.292969c.179687 0 .328125.148438.328125.332031v.660157c0 .183593-.148438.332031-.328125.332031zm0 0"/><path d="m7.609375 3.265625h-5.292969c-.183594 0-.332031-.144531-.332031-.328125v-.664062c0-.179688.148437-.328126.332031-.328126h5.292969c.179687 0 .328125.148438.328125.328126v.664062c0 .183594-.148438.328125-.328125.328125zm0 0"/><path d="m13.890625 11.371094h-4.628906l2.316406 3.308594zm0 0"/><path d="m7.609375 10.542969h-5.292969c-.183594 0-.332031-.148438-.332031-.328125v-.664063c0-.183593.148437-.328125.332031-.328125h5.292969c.179687 0 .328125.144532.328125.328125v.664063c0 .179687-.148438.328125-.328125.328125zm0 0"/><path d="m13.890625 4.753906h-4.628906l2.316406-3.304687zm0 0"/><path d="m7.609375 14.183594h-5.292969c-.183594 0-.332031-.148438-.332031-.332032v-.660156c0-.183594.148437-.332031.332031-.332031h5.292969c.179687 0 .328125.148437.328125.332031v.660156c0 .183594-.148438.332032-.328125.332032zm0 0"/></g></svg>

<?xml version="1.0" encoding="UTF-8"?>
<svg xmlns="http://www.w3.org/2000/svg" xmlns:xlink="http://www.w3.org/1999/xlink" width="16px" height="16px" viewBox="0 0 16 16" version="1.1">
<g id="surface1">
<path style=" stroke:none;fill-rule:nonzero;fill:rgb(25.882354%,25.882354%,25.882354%);fill-opacity:1;" d="M 7.609375 6.90625 L 2.316406 6.90625 C 2.132812 6.90625 1.984375 6.757812 1.984375 6.574219 L 1.984375 5.914062 C 1.984375 5.730469 2.132812 5.582031 2.316406 5.582031 L 7.609375 5.582031 C 7.789062 5.582031 7.9375 5.730469 7.9375 5.914062 L 7.9375 6.574219 C 7.9375 6.757812 7.789062 6.90625 7.609375 6.90625 Z M 7.609375 6.90625 "/>
<path style=" stroke:none;fill-rule:nonzero;fill:rgb(25.882354%,25.882354%,25.882354%);fill-opacity:1;" d="M 7.609375 3.265625 L 2.316406 3.265625 C 2.132812 3.265625 1.984375 3.121094 1.984375 2.9375 L 1.984375 2.273438 C 1.984375 2.09375 2.132812 1.945312 2.316406 1.945312 L 7.609375 1.945312 C 7.789062 1.945312 7.9375 2.09375 7.9375 2.273438 L 7.9375 2.9375 C 7.9375 3.121094 7.789062 3.265625 7.609375 3.265625 Z M 7.609375 3.265625 "/>
<path style=" stroke:none;fill-rule:nonzero;fill:rgb(25.882354%,25.882354%,25.882354%);fill-opacity:1;" d="M 13.890625 11.371094 L 9.261719 11.371094 L 11.578125 14.679688 Z M 13.890625 11.371094 "/>
<path style=" stroke:none;fill-rule:nonzero;fill:rgb(25.882354%,25.882354%,25.882354%);fill-opacity:1;" d="M 7.609375 10.542969 L 2.316406 10.542969 C 2.132812 10.542969 1.984375 10.394531 1.984375 10.214844 L 1.984375 9.550781 C 1.984375 9.367188 2.132812 9.222656 2.316406 9.222656 L 7.609375 9.222656 C 7.789062 9.222656 7.9375 9.367188 7.9375 9.550781 L 7.9375 10.214844 C 7.9375 10.394531 7.789062 10.542969 7.609375 10.542969 Z M 7.609375 10.542969 "/>
<path style=" stroke:none;fill-rule:nonzero;fill:rgb(25.882354%,25.882354%,25.882354%);fill-opacity:1;" d="M 13.890625 4.753906 L 9.261719 4.753906 L 11.578125 1.449219 Z M 13.890625 4.753906 "/>
<path style=" stroke:none;fill-rule:nonzero;fill:rgb(25.882354%,25.882354%,25.882354%);fill-opacity:1;" d="M 7.609375 14.183594 L 2.316406 14.183594 C 2.132812 14.183594 1.984375 14.035156 1.984375 13.851562 L 1.984375 13.191406 C 1.984375 13.007812 2.132812 12.859375 2.316406 12.859375 L 7.609375 12.859375 C 7.789062 12.859375 7.9375 13.007812 7.9375 13.191406 L 7.9375 13.851562 C 7.9375 14.035156 7.789062 14.183594 7.609375 14.183594 Z M 7.609375 14.183594 "/>
</g>
</svg>
